data/playwrite-br.svg

<svg width="109.34" height="31.178" viewBox="0 0 109.34 31.178" xmlns="http://www.w3.org/2000/svg"><path transform="translate(0 22.232) scale(.014 -.014)" d="m455 432q-19-1-28.5 10t-9.5 32q0 19 8.5 29.5t28.5 10.5q88 1 159 24t121.5 66.5 77.5 107 27 145.5q0 99-50.5 152.5t-137.5 53.5q-50 0-94.5-21.5t-80.5-62-62.5-97.5-41-128.5-14.5-155.5v-584q0-13-10-20.5t-33-7.5q-22 0-33 7.5t-11 20.5v902q-19-39-45.5-71.5t-60-60-76.5-51.5q-17-10-30-6t-24 24q-10 18-7 31t22 23q61 32 104 78t70.5 104.5 40.5 128.5q5 19 16.5 24.5t33.5 5.5q21 0 32-6.5t11-20.5v-186q33 71 78.5 118t101.5 71 119 24q82 0 143.5-34.5t95.5-99.5 34-154q0-99-34-177t-97.5-133-151-84.5-192.5-31.5z"/><path transform="translate(13.51 22.232) scale(.014 -.014)" d="m-57-17q-19 0-28 11.5t-9 26 9 26 28 11.5q31 0 61 16t59 46.5 56 73 51 95 44.5 114 37.5 129 28.5 140.5 17.5 148.5 6 151.5q0 16 13 24.5t30.5 8.5 30.5-8.5 13-24.5q0-77-8-156t-22.5-156.5-34.5-151-45.5-140.5-55.5-126-63-106.5-69-81.5-73.5-52.5-76.5-18.5zm278 0q-26 0-45 7t-30.5 20-17 32.5-5.5 43.5v871q0 97 34.5 145t102.5 48q44 0 73-20t43.5-59.5 14.5-98.5q0-19-13-28t-30.5-9-30.5 9-13 28q0 34-5 55.5t-15 32-26 10.5-27-11-16.5-35.5-5.5-66.5v-861q0-13 4-21.5t11-12.5 16-4 16.5 3 14.5 8.5 14 10.5q8 7 18 2.5t17-12.5q8-10 8.5-20t-4.5-19q-11-15-28-26t-36-16.5-39-5.5z"/><path transform="translate(19.026 22.232) scale(.014 -.014)" d="m258-17q-57 0-101 27.5t-69 83.5-25 141q0 52 9.5 96t28.5 79 46 59 62 37 77 13q32 0 66-10.5t64-27.5v5q0 15 11 22t33 7 32.5-6.5 10.5-20.5v-392q0-13 4-21.5t11-12.5 16-4q10 0 16.5 2.5t13 7.5 15.5 12q7 6 16 3.5t18-10.5q9-10 10-21t-4-19q-11-16-28-27t-36.5-17-39.5-6q-23 0-40 5t-29 15.5-18.5 25.5-9.5 34q0 1-1 4.5t-1 7.5q-23-37-49.5-57t-54.5-27.5-54-7.5zm-107 256q0-55 13-94.5t39.5-60.5 66.5-21q29 0 55.5 10t49.5 33 41 60v242q-31 19-60 25.5t-61 6.5q-26 0-48-8t-40-24-30.5-40-19-56-6.5-73z"/><path transform="translate(27.734 22.232) scale(.014 -.014)" d="m515-20q16 13 31 25.5t29.5 23.5 27.5 20 24 16q14 8 25.5 3t17.5-17.5 3.5-26.5-15.5-22q-12-8-27.5-20t-33-26-34.5-28.5-34-27.5zm-162-630q-72 0-114 42t-42 119q0 39 9.5 80t29.5 83 50 84.5 70 83.5q17 16 34 32.5t34.5 32 35.5 29.5v140q-13-21-30.5-38.5t-39-29.5-45.5-18.5-51-6.5q-58 0-97 20.5t-58.5 61-19.5 101.5v203q0 42-13 56.5t-36 14.5q-17 0-28.5-9t-18-26-8.5-40q-1-16-9-23.5t-26-7.5q-16 0-26 7t-9 33q2 43 17.5 74.5t43 49 64.5 17.5q35 0 60.5-10t42-31 24.5-52 8-73v-183q0-35 11-59t33.5-36 55.5-12q28 0 52 9t43.5 25 34.5 38 25 47v311q0 13 10.5 19.5t32.5 6.5q21 0 32-6.5t11-19.5v-886q0-60-13.5-107t-38.5-79.5-61-49.5-80-17zm5 77q33 0 55.5 20.5t34.5 60.5 12 97v235q-13-9-24-18.5t-20.5-18.5-19.5-18q-27-32-47-65t-34.5-67-21.5-68.5-7-67.5q0-28 8-48.5t24-31 40-10.5z"/><path transform="translate(37.044 22.232) scale(.014 -.014)" d="m273-17q-36 0-64.5 11.5t-48.5 34.5-30.5 57-10.5 80v203q0 42-13 56.5t-36 14.5q-17 0-28.5-9t-18-26-8.5-40q-1-16-9-23.5t-26-7.5q-16 0-26 7t-9 33q2 43 17.5 74.5t43 49 64.5 17.5q35 0 60.5-10t42-31 24.5-52 8-73v-183q0-35 8.5-59t27-36 47.5-12q20 0 42 7.5t41.5 26.5 31.5 52.5 12 84.5v259q0 12 10.5 19t32.5 7q23 0 33-7t10-19v-278q0-46 4.5-75t15-45.5 27.5-23 41-6.5q20 0 39.5 6t37 19.5 31 35.5 21.5 52.5 8 71.5q0 38-5.5 75t-17 72.5-30.5 67.5q-11 18-6 31t19 20 29 7q14 0 21-6t14-18q15-23 29.5-59.5t24.5-82.5 10-98q0-42-10-82.5t-29-75-47.5-60.5-65.5-41-83-15q-33 0-62 11t-50.5 33.5-34.5 57.5q-17-33-42-55t-55-33.5-62-11.5z"/><path transform="translate(49.476 22.232) scale(.014 -.014)" d="m-55-17q-19 0-28.5 11.5t-10 26 8.5 26 28 11.5q31 0 57 24t47 71.5 37 117.5 26 162l60-9q-9-112-27.5-195t-46.5-137.5-65.5-81.5-85.5-27zm515 0q-26 0-45 7t-31 20.5-18 34-6 46.5q0 28 2.5 64t5 74 5 72.5 2.5 59.5q0 39-9.5 53.5t-35.5 14.5q-28 0-64-10t-70-19.5-55-9.5q-18 0-34.5 19.5t-27.5 48-11 55.5q0 18 6 32t17.5 22 29.5 8q33 0 44-23t11-54q0-7 0-14t-1-15q12 0 39 11t62.5 22 71.5 11q40 0 65-15t36.5-46.5 11.5-82.5q0-23-2.5-58.5t-5-75-5-74.5-2.5-58q0-26 7.5-35.5t22.5-9.5q10 0 18 3t15.5 8.5 14.5 10.5q8 6 18 2t17-12q8-10 8.5-20t-4.5-19q-11-15-27.5-26t-36-16.5-39.5-5.5z"/><path transform="translate(57.428 22.232) scale(.014 -.014)" d="m193-17q-52 0-75.5 27t-23.5 76v403q0 13 10.5 19.5t31.5 6.5q22 0 33-6.5t11-19.5v-393q0-20 9-29t22-9q11 0 18.5 3.5t14 8.5 14.5 11q6 5 16.5 1t16.5-12q8-9 9-19t-5-18q-11-16-27.5-27t-36-17-38.5-6zm-55 686q-28 0-42.5 15.5t-14.5 46.5q0 32 14.5 48t42.5 16q27 0 41-16t14-48q1-31-13.5-46.5t-41.5-15.5z"/><path transform="translate(61.628 22.232) scale(.014 -.014)" d="m243-17q-42 0-69.5 15.5t-41 44-13.5 68.5v309h-78q-15 0-21 9t-6 31q0 23 6 31.5t21 8.5h78v204q0 13 10.5 19.5t31.5 6.5q22 0 33-6.5t11-19.5v-204h126q15 0 21.5-8.5t6.5-31.5q0-22-6.5-31t-21.5-9h-126v-299q0-34 9.5-48.5t34.5-14.5q23 0 39.5 11t34.5 27q12 11 22.5 7.5t19.5-12.5q11-10 11.5-20.5t-5.5-19.5q-17-25-38-40t-44-21.5-46-6.5z"/><path transform="translate(67.06 22.232) scale(.014 -.014)" d="m300-17q-40 0-77.5 17t-69 48-55 73.5-36.5 93-13 106.5q0 34 8 64.5t23 55 36 42 47 27 56 9.5q57 0 92.5-23t51.5-60.5 16-80.5q0-34-12.5-70t-34.5-70.5-51-66.5q-43-48-98-85.5t-116.5-58.5-126.5-21q-14 0-21 11.5t-5.5 26 12.5 26 33 11.5q46 0 94.5 18t92.5 48 75 65q22 25 37.5 51.5t23.5 53.5 8 52q0 53-20 73.5t-54 20.5q-17 0-31.5-7.5t-25.5-23-17-37.5-6-51q0-57 16.5-104.5t43.5-81.5 57.5-53 57.5-19q19 0 37 7.5t37.5 22.5 39.5 37q14 16 27 15.5t27-11.5 16.5-23-6.5-26q-25-38-58.5-60.5t-67.5-32-63-9.5z"/><path transform="translate(77.476 22.232) scale(.014 -.014)" d="m675-12q-49 0-94.5 11t-76.5 28q-22 13-25.5 28t9.5 37q11 17 24 20t31-7q34-18 72-26t83-8q58 0 108 21t87.5 59 58.5 88.5 21 109.5q0 73-32 123.5t-93 76.5-151 26q-22-9-45.5-15.5t-42.5-6.5q-27 0-45 15t-18 39q0 17 8 30t24 20.5 39 7.5q24 0 43.5-4.5t35.5-10.5q41 7 75.5 20.5t61 32.5 44 44.5 26.5 57.5 9 70q0 58-25.5 100t-74.5 65-119 23q-53 0-102.5-18.5t-91.5-56-73.5-93-49.5-130-18-167.5v-584q0-13-10-20.5t-33-7.5q-22 0-33 7.5t-11 20.5v902q-19-39-45.5-71.5t-60-60-76.5-51.5q-17-9-31-5.5t-23 23.5q-10 18-7 31t22 23q61 32 104 78t70.5 104.5 40.5 128.5q5 19 16.5 24.5t33.5 5.5q21 0 32-6.5t11-20.5v-196q28 56 66 98t83 69.5 96 41.5 104 14q98 0 163.5-33.5t98.5-92 33-134.5q0-54-13.5-97.5t-39-76-63-55.5-85.5-37v-2q77 0 136.5-34t93.5-94 34-138-29-144-82-115.5-124-77-155-27.5z"/><path transform="translate(93.24 22.232) scale(.014 -.014)" d="m976-19q-41 0-74 17.5t-63.5 51.5-63 82-70.5 110q-30 47-51 81t-36 60-28.5 50-28.5 50q-32-1-55 8.5t-35.5 25-12.5 32.5q0 23 17.5 37.5t45.5 14.5q23 0 45-10.5t37-26.5q46 9 85.5 28t71 46 54 61 35 74.5 12.5 86.5q0 62-22 107.5t-64 70.5-103 25q-53 0-100-20t-86-59-67.5-95.5-44.5-129.5-16-161v-584q0-13-10-20.5t-33-7.5q-22 0-33 7.5t-11 20.5v902q-19-39-45.5-71.5t-60-60-76.5-51.5q-17-9-30-5.5t-24 23.5q-10 18-7 31t22 23q61 32 104 78t70.5 104.5 40.5 128.5q5 19 16.5 24.5t33.5 5.5q21 0 32-6.5t11-20.5v-193q25 55 59 96t75 68.5 87.5 41.5 97.5 14q86 0 147.5-34.5t94.5-97.5 33-147q0-55-14-103.5t-40-89.5-63.5-74-85.5-58-104-41q10-20 20.5-38.5t24-41 32.5-52.5 45-72q39-62 68-104t51-68 38-39 30-17.5 26-4.5q19 0 35 8t30.5 23 29.5 34q8 10 20 10t27-10q14-10 16.5-22.5t-5.5-24.5q-22-32-49-55t-55-34.5-53-11.5z"/></svg>

<?xml version="1.0" encoding="utf-8" ?>
<svg baseProfile="tiny" height="100%" version="1.2" width="100%" xmlns="http://www.w3.org/2000/svg" xmlns:ev="http://www.w3.org/2001/xml-events" xmlns:xlink="http://www.w3.org/1999/xlink"><defs /><g><path d="M455 432Q436 431 426.5 442.0Q417 453 417 474Q417 493 425.5 503.5Q434 514 454 514Q542 515 613.0 538.0Q684 561 734.5 604.5Q785 648 812.0 711.5Q839 775 839 857Q839 956 788.5 1009.5Q738 1063 651 1063Q601 1063 556.5 1041.5Q512 1020 476.0 979.5Q440 939 413.5 882.0Q387 825 372.5 753.5Q358 682 358 598V14Q358 1 348.0 -6.5Q338 -14 315 -14Q293 -14 282.0 -6.5Q271 1 271 14V916Q252 877 225.5 844.5Q199 812 165.5 784.5Q132 757 89 733Q72 723 59.0 727.0Q46 731 35 751Q25 769 28.0 782.0Q31 795 50 805Q111 837 154.0 883.0Q197 929 224.5 987.5Q252 1046 265 1116Q270 1135 281.5 1140.5Q293 1146 315 1146Q336 1146 347.0 1139.5Q358 1133 358 1119V933Q391 1004 436.5 1051.0Q482 1098 538.0 1122.0Q594 1146 657 1146Q739 1146 800.5 1111.5Q862 1077 896.0 1012.0Q930 947 930 858Q930 759 896.0 681.0Q862 603 798.5 548.0Q735 493 647.5 463.5Q560 434 455 432Z" transform="translate(0.0, 72) scale(0.072, -0.072)" /><path d="M-57 -17Q-76 -17 -85.0 -5.5Q-94 6 -94.0 20.5Q-94 35 -85.0 46.5Q-76 58 -57 58Q-26 58 4.0 74.0Q34 90 63.0 120.5Q92 151 119.0 193.5Q146 236 170.0 288.5Q194 341 214.5 402.5Q235 464 252.0 531.5Q269 599 280.5 672.0Q292 745 298.0 820.5Q304 896 304 972Q304 988 317.0 996.5Q330 1005 347.5 1005.0Q365 1005 378.0 996.5Q391 988 391 972Q391 895 383.0 816.0Q375 737 360.5 659.5Q346 582 326.0 508.5Q306 435 280.5 368.0Q255 301 225.0 242.0Q195 183 162.0 135.5Q129 88 93.0 54.0Q57 20 19.5 1.5Q-18 -17 -57 -17ZM221 -17Q195 -17 176.0 -10.0Q157 -3 145.5 10.0Q134 23 128.5 42.5Q123 62 123 86V957Q123 1054 157.5 1102.0Q192 1150 260 1150Q304 1150 333.0 1130.0Q362 1110 376.5 1070.5Q391 1031 391 972Q391 953 378.0 944.0Q365 935 347.5 935.0Q330 935 317.0 944.0Q304 953 304 972Q304 1006 299.0 1027.5Q294 1049 284.0 1059.5Q274 1070 258 1070Q242 1070 231.0 1059.0Q220 1048 214.5 1023.5Q209 999 209 957V96Q209 83 213.0 74.5Q217 66 224.0 62.0Q231 58 240 58Q249 58 256.5 61.0Q264 64 271.0 69.5Q278 75 285 80Q293 87 303.0 82.5Q313 78 320 70Q328 60 328.5 50.0Q329 40 324 31Q313 16 296.0 5.0Q279 -6 260.0 -11.5Q241 -17 221 -17Z" transform="translate(69.47999999999999, 72) scale(0.072, -0.072)" /><path d="M258 -17Q201 -17 157.0 10.5Q113 38 88.0 94.0Q63 150 63 235Q63 287 72.5 331.0Q82 375 101.0 410.0Q120 445 147.0 469.0Q174 493 209.0 506.0Q244 519 286 519Q318 519 352.0 508.5Q386 498 416 481V486Q416 501 427.0 508.0Q438 515 460 515Q482 515 492.5 508.5Q503 502 503 488V96Q503 83 507.0 74.5Q511 66 518.0 62.0Q525 58 534 58Q544 58 550.5 60.5Q557 63 563.5 68.0Q570 73 579 80Q586 86 595.0 83.5Q604 81 613 73Q622 63 623.0 52.0Q624 41 619 33Q608 17 591.0 6.0Q574 -5 554.5 -11.0Q535 -17 515 -17Q492 -17 475.0 -12.0Q458 -7 446.0 3.5Q434 14 427.5 29.0Q421 44 418 63Q418 64 417.0 67.5Q416 71 416 75Q393 38 366.5 18.0Q340 -2 312.0 -9.5Q284 -17 258 -17ZM151 239Q151 184 164.0 144.5Q177 105 203.5 84.0Q230 63 270 63Q299 63 325.5 73.0Q352 83 375.0 106.0Q398 129 416 166V408Q385 427 356.0 433.5Q327 440 295 440Q269 440 247.0 432.0Q225 424 207.0 408.0Q189 392 176.5 368.0Q164 344 157.5 312.0Q151 280 151 239Z" transform="translate(97.84799999999998, 72) scale(0.072, -0.072)" /><path d="M515 -20Q531 -7 546.0 5.5Q561 18 575.5 29.0Q590 40 603.0 49.0Q616 58 627 65Q641 73 652.5 68.0Q664 63 670.0 50.5Q676 38 673.5 24.0Q671 10 658 2Q646 -6 630.5 -18.0Q615 -30 597.5 -44.0Q580 -58 563.0 -72.5Q546 -87 529 -100ZM353 -650Q281 -650 239.0 -608.0Q197 -566 197 -489Q197 -450 206.5 -409.0Q216 -368 236.0 -326.0Q256 -284 286.0 -241.5Q316 -199 356 -158Q373 -142 390.0 -125.5Q407 -109 424.5 -93.5Q442 -78 460 -64V76Q447 55 429.5 37.5Q412 20 390.5 8.0Q369 -4 345.0 -10.5Q321 -17 294 -17Q236 -17 197.0 3.5Q158 24 138.5 64.5Q119 105 119 166V369Q119 411 106.0 425.5Q93 440 70 440Q53 440 41.5 431.0Q30 422 23.5 405.0Q17 388 15 365Q14 349 6.0 341.5Q-2 334 -20 334Q-36 334 -46.0 341.0Q-56 348 -55 374Q-53 417 -37.5 448.5Q-22 480 5.5 497.5Q33 515 70 515Q105 515 130.5 505.0Q156 495 172.5 474.0Q189 453 197.0 422.0Q205 391 205 349V166Q205 131 216.0 107.0Q227 83 249.5 71.0Q272 59 305 59Q333 59 357.0 68.0Q381 77 400.5 93.0Q420 109 435.0 131.0Q450 153 460 178V489Q460 502 470.5 508.5Q481 515 503 515Q524 515 535.0 508.5Q546 502 546 489V-397Q546 -457 532.5 -504.0Q519 -551 494.0 -583.5Q469 -616 433.0 -633.0Q397 -650 353 -650ZM358 -573Q391 -573 413.5 -552.5Q436 -532 448.0 -492.0Q460 -452 460 -395V-160Q447 -169 436.0 -178.5Q425 -188 415.5 -197.0Q406 -206 396 -215Q369 -247 349.0 -280.0Q329 -313 314.5 -347.0Q300 -381 293.0 -415.5Q286 -450 286 -483Q286 -511 294.0 -531.5Q302 -552 318.0 -562.5Q334 -573 358 -573Z" transform="translate(142.63199999999998, 72) scale(0.072, -0.072)" /><path d="M273 -17Q237 -17 208.5 -5.5Q180 6 160.0 29.0Q140 52 129.5 86.0Q119 120 119 166V369Q119 411 106.0 425.5Q93 440 70 440Q53 440 41.5 431.0Q30 422 23.5 405.0Q17 388 15 365Q14 349 6.0 341.5Q-2 334 -20 334Q-36 334 -46.0 341.0Q-56 348 -55 374Q-53 417 -37.5 448.5Q-22 480 5.5 497.5Q33 515 70 515Q105 515 130.5 505.0Q156 495 172.5 474.0Q189 453 197.0 422.0Q205 391 205 349V166Q205 131 213.5 107.0Q222 83 240.5 71.0Q259 59 288 59Q308 59 330.0 66.5Q352 74 371.5 93.0Q391 112 403.0 145.5Q415 179 415 230V489Q415 501 425.5 508.0Q436 515 458 515Q481 515 491.0 508.0Q501 501 501 489V211Q501 165 505.5 136.0Q510 107 520.5 90.5Q531 74 548.0 67.5Q565 61 589 61Q609 61 628.5 67.0Q648 73 665.5 86.5Q683 100 696.5 122.0Q710 144 718.0 174.5Q726 205 726 246Q726 284 720.5 321.0Q715 358 703.5 393.5Q692 429 673 461Q662 479 667.0 492.0Q672 505 686.0 512.0Q700 519 715 519Q729 519 736.0 513.0Q743 507 750 495Q765 472 779.5 435.5Q794 399 804.0 353.0Q814 307 814 255Q814 213 804.0 172.5Q794 132 775.0 97.5Q756 63 727.5 37.0Q699 11 662.0 -4.0Q625 -19 579 -19Q546 -19 517.0 -8.0Q488 3 466.5 25.5Q445 48 432 83Q415 50 390.0 28.0Q365 6 335.0 -5.5Q305 -17 273 -17Z" transform="translate(190.51199999999997, 72) scale(0.072, -0.072)" /><path d="M-55 -17Q-74 -17 -83.5 -5.5Q-93 6 -93.5 20.5Q-94 35 -85.0 46.5Q-76 58 -57 58Q-26 58 0.0 82.0Q26 106 47.0 153.5Q68 201 84.0 271.0Q100 341 110 433L170 424Q161 312 142.5 229.0Q124 146 96.0 91.5Q68 37 30.5 10.0Q-7 -17 -55 -17ZM460 -17Q434 -17 415.0 -10.0Q396 -3 384.0 10.5Q372 24 366.0 44.5Q360 65 360 91Q360 119 362.5 155.0Q365 191 367.5 229.0Q370 267 372.5 301.5Q375 336 375 361Q375 400 365.5 414.5Q356 429 330 429Q302 429 266.0 419.0Q230 409 196.0 399.5Q162 390 141 390Q123 390 106.5 409.5Q90 429 79.0 457.5Q68 486 68 513Q68 531 74.0 545.0Q80 559 91.5 567.0Q103 575 121 575Q154 575 165.0 552.0Q176 529 176 498Q176 491 176.0 484.0Q176 477 175 469Q187 469 214.0 480.0Q241 491 276.5 502.0Q312 513 348 513Q388 513 413.0 498.0Q438 483 449.5 451.5Q461 420 461 369Q461 346 458.5 310.5Q456 275 453.5 235.5Q451 196 448.5 161.0Q446 126 446 103Q446 77 453.5 67.5Q461 58 476 58Q486 58 494.0 61.0Q502 64 509.5 69.5Q517 75 524 80Q532 86 542.0 82.0Q552 78 559 70Q567 60 567.5 50.0Q568 40 563 31Q552 16 535.5 5.0Q519 -6 499.5 -11.5Q480 -17 460 -17Z" transform="translate(254.44799999999998, 72) scale(0.072, -0.072)" /><path d="M193 -17Q141 -17 117.5 10.0Q94 37 94 86V489Q94 502 104.5 508.5Q115 515 136 515Q158 515 169.0 508.5Q180 502 180 489V96Q180 76 189.0 67.0Q198 58 211 58Q222 58 229.5 61.5Q237 65 243.5 70.0Q250 75 258 81Q264 86 274.5 82.0Q285 78 291 70Q299 61 300.0 51.0Q301 41 295 33Q284 17 267.5 6.0Q251 -5 231.5 -11.0Q212 -17 193 -17ZM138 669Q110 669 95.5 684.5Q81 700 81 731Q81 763 95.5 779.0Q110 795 138 795Q165 795 179.0 779.0Q193 763 193 731Q194 700 179.5 684.5Q165 669 138 669Z" transform="translate(295.344, 72) scale(0.072, -0.072)" /><path d="M243 -17Q201 -17 173.5 -1.5Q146 14 132.5 42.5Q119 71 119 111V420H41Q26 420 20.0 429.0Q14 438 14 460Q14 483 20.0 491.5Q26 500 41 500H119V704Q119 717 129.5 723.5Q140 730 161 730Q183 730 194.0 723.5Q205 717 205 704V500H331Q346 500 352.5 491.5Q359 483 359 460Q359 438 352.5 429.0Q346 420 331 420H205V121Q205 87 214.5 72.5Q224 58 249 58Q272 58 288.5 69.0Q305 80 323 96Q335 107 345.5 103.5Q356 100 365 91Q376 81 376.5 70.5Q377 60 371 51Q354 26 333.0 11.0Q312 -4 289.0 -10.5Q266 -17 243 -17Z" transform="translate(316.944, 72) scale(0.072, -0.072)" /><path d="M300 -17Q260 -17 222.5 0.0Q185 17 153.5 48.0Q122 79 98.5 121.5Q75 164 62.0 214.5Q49 265 49 321Q49 355 57.0 385.5Q65 416 80.0 440.5Q95 465 116.0 482.5Q137 500 163.0 509.5Q189 519 219 519Q276 519 311.5 496.0Q347 473 363.0 435.5Q379 398 379 355Q379 321 366.5 285.0Q354 249 332.0 214.5Q310 180 281 148Q238 100 183.0 62.5Q128 25 66.5 4.0Q5 -17 -60 -17Q-74 -17 -81.0 -5.5Q-88 6 -86.5 20.5Q-85 35 -74.0 46.5Q-63 58 -41 58Q5 58 53.5 76.0Q102 94 146.0 124.0Q190 154 221 189Q243 214 258.5 240.5Q274 267 282.0 294.0Q290 321 290 346Q290 399 270.0 419.5Q250 440 216 440Q199 440 184.5 432.5Q170 425 159.0 409.5Q148 394 142.0 372.0Q136 350 136 321Q136 264 152.5 216.5Q169 169 196.0 135.0Q223 101 253.5 82.0Q284 63 311 63Q330 63 348.0 70.5Q366 78 385.5 93.0Q405 108 425 130Q439 146 452.0 145.5Q465 145 479 134Q493 123 495.5 111.0Q498 99 489 85Q464 47 430.5 24.5Q397 2 363.0 -7.5Q329 -17 300 -17Z" transform="translate(344.88, 72) scale(0.072, -0.072)" /><path d="M675 -12Q626 -12 580.5 -1.0Q535 10 504 27Q482 40 478.5 55.0Q475 70 488 92Q499 109 512.0 112.0Q525 115 543 105Q577 87 615.0 79.0Q653 71 698 71Q756 71 806.0 92.0Q856 113 893.5 151.0Q931 189 952.0 239.5Q973 290 973 349Q973 422 941.0 472.5Q909 523 848.0 549.0Q787 575 697 575Q675 566 651.5 559.5Q628 553 609 553Q582 553 564.0 568.0Q546 583 546 607Q546 624 554.0 637.0Q562 650 578.0 657.5Q594 665 617 665Q641 665 660.5 660.5Q680 656 696 650Q737 657 771.5 670.5Q806 684 832.5 703.0Q859 722 876.5 747.5Q894 773 903.0 805.0Q912 837 912 875Q912 933 886.5 975.0Q861 1017 812.0 1040.0Q763 1063 693 1063Q640 1063 590.5 1044.5Q541 1026 499.0 988.5Q457 951 425.5 895.5Q394 840 376.0 765.5Q358 691 358 598V14Q358 1 348.0 -6.5Q338 -14 315 -14Q293 -14 282.0 -6.5Q271 1 271 14V916Q252 877 225.5 844.5Q199 812 165.5 784.5Q132 757 89 733Q72 724 58.0 727.5Q44 731 35 751Q25 769 28.0 782.0Q31 795 50 805Q111 837 154.0 883.0Q197 929 224.5 987.5Q252 1046 265 1116Q270 1135 281.5 1140.5Q293 1146 315 1146Q336 1146 347.0 1139.5Q358 1133 358 1119V923Q386 979 424.0 1021.0Q462 1063 507.0 1090.5Q552 1118 603.0 1132.0Q654 1146 707 1146Q805 1146 870.5 1112.5Q936 1079 969.0 1020.5Q1002 962 1002 886Q1002 832 988.5 788.5Q975 745 949.5 712.5Q924 680 886.5 657.0Q849 634 801 620V618Q878 618 937.5 584.0Q997 550 1031.0 490.0Q1065 430 1065 352Q1065 274 1036.0 208.0Q1007 142 954.0 92.5Q901 43 830.0 15.5Q759 -12 675 -12Z" transform="translate(398.44800000000004, 72) scale(0.072, -0.072)" /><path d="M976 -19Q935 -19 902.0 -1.5Q869 16 838.5 50.0Q808 84 775.5 132.0Q743 180 705 242Q675 289 654.0 323.0Q633 357 618.0 383.0Q603 409 589.5 433.0Q576 457 561 483Q529 482 506.0 491.5Q483 501 470.5 516.5Q458 532 458 549Q458 572 475.5 586.5Q493 601 521 601Q544 601 566.0 590.5Q588 580 603 564Q649 573 688.5 592.0Q728 611 759.5 638.0Q791 665 813.5 699.0Q836 733 848.5 773.5Q861 814 861 860Q861 922 839.0 967.5Q817 1013 775.0 1038.0Q733 1063 672 1063Q619 1063 572.0 1043.0Q525 1023 486.0 984.0Q447 945 418.5 888.5Q390 832 374.0 759.0Q358 686 358 598V14Q358 1 348.0 -6.5Q338 -14 315 -14Q293 -14 282.0 -6.5Q271 1 271 14V916Q252 877 225.5 844.5Q199 812 165.5 784.5Q132 757 89 733Q72 724 59.0 727.5Q46 731 35 751Q25 769 28.0 782.0Q31 795 50 805Q111 837 154.0 883.0Q197 929 224.5 987.5Q252 1046 265 1116Q270 1135 281.5 1140.5Q293 1146 315 1146Q336 1146 347.0 1139.5Q358 1133 358 1119V926Q383 981 417.0 1022.0Q451 1063 492.0 1090.5Q533 1118 579.5 1132.0Q626 1146 677 1146Q763 1146 824.5 1111.5Q886 1077 919.0 1014.0Q952 951 952 867Q952 812 938.0 763.5Q924 715 898.0 674.0Q872 633 834.5 600.0Q797 567 749.0 542.0Q701 517 645 501Q655 481 665.5 462.5Q676 444 689.5 421.5Q703 399 722.0 369.0Q741 339 767 297Q806 235 835.0 193.0Q864 151 886.0 125.0Q908 99 924.0 86.0Q940 73 954.0 68.5Q968 64 980 64Q999 64 1015.0 72.0Q1031 80 1045.5 95.0Q1060 110 1075 129Q1083 139 1095.0 139.0Q1107 139 1122 129Q1136 119 1138.5 106.5Q1141 94 1133 82Q1111 50 1084.0 27.0Q1057 4 1029.0 -7.5Q1001 -19 976 -19Z" transform="translate(479.52000000000004, 72) scale(0.072, -0.072)" /></g></svg>
